src/lib/packages/icons/src/assets/line/face-smile.svg

<svg xmlns="http://www.w3.org/2000/svg" width="24" height="24" fill="none"><path fill="currentColor" d="M12 22.75C6.07 22.75 1.25 17.93 1.25 12S6.07 1.25 12 1.25 22.75 6.07 22.75 12 17.93 22.75 12 22.75Zm0-20C6.9 2.75 2.75 6.9 2.75 12S6.9 21.25 12 21.25s9.25-4.15 9.25-9.25S17.1 2.75 12 2.75ZM16.25 10c0-1.01-.53-1.75-1.25-1.75s-1.25.74-1.25 1.75.53 1.75 1.25 1.75 1.25-.74 1.25-1.75Zm-6 0c0-1.01-.53-1.75-1.25-1.75S7.75 8.99 7.75 10s.53 1.75 1.25 1.75 1.25-.74 1.25-1.75Zm6.35 5.45a.749.749 0 1 0-1.19-.91 4.243 4.243 0 0 1-3.4 1.7c-1.34 0-2.59-.64-3.39-1.7a.75.75 0 0 0-1.2.9c1.08 1.44 2.8 2.3 4.59 2.3s3.49-.84 4.6-2.3l-.01.01Z"/></svg>

<svg width="24" height="24" viewBox="0 0 24 24" fill="none" xmlns="http://www.w3.org/2000/svg">
<path d="M12 22.75C6.07 22.75 1.25 17.93 1.25 12C1.25 6.07 6.07 1.25 12 1.25C17.93 1.25 22.75 6.07 22.75 12C22.75 17.93 17.93 22.75 12 22.75ZM12 2.75C6.9 2.75 2.75 6.9 2.75 12C2.75 17.1 6.9 21.25 12 21.25C17.1 21.25 21.25 17.1 21.25 12C21.25 6.9 17.1 2.75 12 2.75ZM16.25 10C16.25 8.99 15.72 8.25 15 8.25C14.28 8.25 13.75 8.99 13.75 10C13.75 11.01 14.28 11.75 15 11.75C15.72 11.75 16.25 11.01 16.25 10ZM10.25 10C10.25 8.99 9.72 8.25 9 8.25C8.28 8.25 7.75 8.99 7.75 10C7.75 11.01 8.28 11.75 9 11.75C9.72 11.75 10.25 11.01 10.25 10ZM16.6 15.45C16.85 15.12 16.79 14.65 16.46 14.4C16.13 14.15 15.66 14.21 15.41 14.54C14.59 15.62 13.35 16.24 12.01 16.24C10.67 16.24 9.42 15.6 8.62 14.54C8.37 14.21 7.9 14.14 7.57 14.39C7.24 14.64 7.17 15.11 7.42 15.44C8.5 16.88 10.22 17.74 12.01 17.74C13.8 17.74 15.5 16.9 16.61 15.44L16.6 15.45Z" fill="currentColor"/>
</svg>
